X:1
T:Vera refert Christus
T:Daniel Friderici
T:Source : Bicinia sacra---Rostock---J.Richelius---1642. Editor : André Vierendeels (30/06/17).
T:Notes : Original clefs :  C1,   C1 Editorial accidentals above the staff  
T:Vera refert Christus
T:©
T:©
C:Daniel Friderici
Z:©
%%score [ 1 2 ]
L:1/8
Q:1/4=120
M:2/2
K:F
V:1 treble nm="Soprano 1" snm="S 1"
V:2 treble nm="Soprano 2" snm="S 2"
V:1
 G8 | D8 | d2 c2 B2 c2 | d2 A2 B2 F2 | G8 | D4 d2 c2 | B2 A2 G4 | A2 =B4 B2 | =B2 c2 d4 | %9
w: Ve-|ra,|ve- * * *|||ra, ve- *||ra, ve- ra|re- fert Chri-|
 d4 z2 d2 | c3 c c2 B2 | A2 G2 A2 A2 | z2 B2 A3 A | A2 G2 ^F2 G2 | ^F8 | ^F8 :: z8 | d2 Bc d2 B2 | %18
w: stus, non|ar- gu- e ve-|ra lo- quen- tem,|non ar- gu-|e ve- ra lo-|quen-|tem,||ne ti- bi sis Cla-|
 G4 B2 GA | B2 c2 d4 | G2 GA B2 c2 | d4 D2 DE | F2 G2 A2 A2- | AG G2 G2 F2 | E4 D2 d2- | %25
w: dis, ne ti- bi|sis Cla- dis,|ne ti- bi sis Cla-|dis, ne ti- bi|sis Cla- dis ju-|* sta ru- i- na|tu- ae, ju-|
 dd d2 c2 B2 | A8 | G8 :| %28
w: * sta ru- i- na|tu-|ae.|
V:2
 z8 | z8 | G8 | D8 | d2 c2 B2 c2 | d2 A2 B2 F2 | G2 F2 _E4 | D2 G4 G2 | G2 A2 B4 | B4 z2 B2 | %10
w: ||Ve-|ra,|ve- * * *|||ra, ve- ra|re- fert Chri-|stus, non|
 A3 A A2 G2 | ^F2 G2 F2 F2 | z2 d2 c3 c | c2 B2 A2 G2 | A8 | A8 :: d2 Bc d2 B2 | G8 | d2 Bc d2 B2 | %19
w: ar- gu- e ve-|ra lo- quen- tem,|non ar- gu-|e ve- ra lo-|quen-|tem,|ne ti- bi sis Cla-|dis,|ne ti- bi sis Cla-|
 G4 B2 GA | B2 c2 d4 | D2 DE F2 G2 | A2 d3 c c2 | c2 B2 A4 | G2 G2 A2 B2- | BB B2 A2 G2 | %26
w: dis, ne ti- bi|sis Cla- dis,|ne ti- bi sis Cla-|dis, ju- sta ru-|i- na tu-|ae, jiu- sta, ju-|* sta ru- i- na|
 G2 ^FE F4 | G8 :| %28
w: tu- * * *|ae.|

